packages/icons/src/resource-stack-destroy.svg

<svg fill="none" viewBox="0 0 33 33" xmlns="http://www.w3.org/2000/svg"><path clip-rule="evenodd" d="m16.9961 4.50391c6.3513 0 11.5 5.14872 11.5 11.49999 0 6.3513-5.1487 11.5-11.5 11.5-.2761 0-.5.2239-.5.5s.2239.5.5.5c6.9036 0 12.5-5.5964 12.5-12.5 0-6.90355-5.5964-12.49999-12.5-12.49999s-12.50001 5.59644-12.50001 12.49999c0 .2761.22386.5.5.5.27615 0 .5-.2239.5-.5 0-6.35127 5.14871-11.49999 11.50001-11.49999z" fill="#0278d5" fill-rule="evenodd"/><path d="m22.5415 16.0001h-11.0833" stroke="#0278d5" stroke-linecap="round" stroke-linejoin="round"/><g clip-rule="evenodd" fill="#0278d5" fill-rule="evenodd"><path d="m3.45736 22.3773 4.54256-2.6227 4.54258 2.6227v5.2453l-4.54258 2.6226-4.54256-2.6226zm4.04256-3.4887c.3094-.1786.6906-.1786 1 0l4.54258 2.6227c.3094.1786.5.5087.5.866v5.2453c0 .3573-.1906.6874-.5.866l-4.54258 2.6227c-.3094.1786-.6906.1786-1 0l-4.54256-2.6227c-.30941-.1786-.5-.5087-.5-.866v-5.2453c0-.3573.19059-.6874.5-.866z"/><path d="m5.76659 23.7107 2.23316-1.2893 2.23315 1.2893v2.5786l-2.23315 1.2894-2.23316-1.2894zm1.73316-2.1553c.3094-.1787.6906-.1787 1 0l2.23315 1.2893c.3094.1786.5.5087.5.866v2.5786c0 .3573-.1906.6874-.5.8661l-2.23315 1.2893c-.3094.1786-.6906.1786-1 0l-2.23316-1.2893c-.3094-.1787-.5-.5088-.5-.8661v-2.5786c0-.3573.1906-.6874.5-.866z"/></g></svg>

<svg viewBox="0 0 33 33" fill="none" xmlns="http://www.w3.org/2000/svg">
<path fill-rule="evenodd" clip-rule="evenodd" d="M16.9961 4.50391C23.3474 4.50391 28.4961 9.65263 28.4961 16.0039C28.4961 22.3552 23.3474 27.5039 16.9961 27.5039C16.72 27.5039 16.4961 27.7278 16.4961 28.0039C16.4961 28.28 16.72 28.5039 16.9961 28.5039C23.8997 28.5039 29.4961 22.9075 29.4961 16.0039C29.4961 9.10035 23.8997 3.50391 16.9961 3.50391C10.0925 3.50391 4.49609 9.10035 4.49609 16.0039C4.49609 16.28 4.71995 16.5039 4.99609 16.5039C5.27224 16.5039 5.49609 16.28 5.49609 16.0039C5.49609 9.65263 10.6448 4.50391 16.9961 4.50391Z" fill="#0278D5"/>
<path d="M22.5415 16.0001H11.4582" stroke="#0278D5" stroke-linecap="round" stroke-linejoin="round"/>
<path fill-rule="evenodd" clip-rule="evenodd" d="M3.45736 22.3773L7.99992 19.7546L12.5425 22.3773V27.6226L7.99992 30.2452L3.45736 27.6226V22.3773ZM7.49992 18.8886C7.80932 18.71 8.19052 18.71 8.49992 18.8886L13.0425 21.5113C13.3519 21.6899 13.5425 22.02 13.5425 22.3773V27.6226C13.5425 27.9799 13.3519 28.31 13.0425 28.4886L8.49992 31.1113C8.19052 31.2899 7.80932 31.2899 7.49992 31.1113L2.95736 28.4886C2.64795 28.31 2.45736 27.9799 2.45736 27.6226V22.3773C2.45736 22.02 2.64795 21.6899 2.95736 21.5113L7.49992 18.8886Z" fill="#0278D5"/>
<path fill-rule="evenodd" clip-rule="evenodd" d="M5.76659 23.7107L7.99975 22.4214L10.2329 23.7107L10.2329 26.2893L7.99975 27.5787L5.76659 26.2893L5.76659 23.7107ZM7.49975 21.5554C7.80915 21.3767 8.19035 21.3767 8.49975 21.5554L10.7329 22.8447C11.0423 23.0233 11.2329 23.3534 11.2329 23.7107V26.2893C11.2329 26.6466 11.0423 26.9767 10.7329 27.1554L8.49975 28.4447C8.19035 28.6233 7.80915 28.6233 7.49975 28.4447L5.26659 27.1554C4.95719 26.9767 4.76659 26.6466 4.76659 26.2893V23.7107C4.76659 23.3534 4.95719 23.0233 5.26659 22.8447L7.49975 21.5554Z" fill="#0278D5"/>
</svg>
